assets/steam.svg

<svg xmlns="http://www.w3.org/2000/svg" viewBox="0 0 16 16"  xmlns:v="https://vecta.io/nano"><path d="M8 15a6.99 6.99 0 0 1-6.7-5.1L3.9 11c.2.9 1 1.6 1.9 1.6 1.1 0 2-.9 2-2.1l2.4-1.7c1.5 0 2.7-1.2 2.7-2.6 0-1.5-1.2-2.6-2.6-2.6S7.7 4.7 7.7 6.2h0L6 8.6c-.5 0-.9.1-1.2.4L1 7.4C1.3 3.8 4.3 1 8 1c3.9 0 7 3.1 7 7s-3.1 7-7 7zm-1.2-4c.2-.6 0-1.2-.6-1.4l-.9-.4c.3-.1.7-.1 1.1 0 .4.2.7.4.8.8.2.4.1.8 0 1.1-.3.8-1.2 1.1-1.9.8-.3-.1-.6-.4-.8-.7l.9.4c.6.3 1.2 0 1.4-.6zm1.7-4.8a1.79 1.79 0 0 1 1.8-1.8 1.79 1.79 0 0 1 1.8 1.8A1.79 1.79 0 0 1 10.3 8a1.79 1.79 0 0 1-1.8-1.8zm3.1 0c0-.7-.6-1.3-1.3-1.3S9 5.5 9 6.2s.6 1.3 1.3 1.3 1.3-.6 1.3-1.3z" fill="#2d2e33"/></svg>

<?xml version="1.0" encoding="utf-8"?>
<!-- Generator: Adobe Illustrator 24.1.1, SVG Export Plug-In . SVG Version: 6.00 Build 0)  -->
<svg version="1.1" id="Layer_1" xmlns="http://www.w3.org/2000/svg" xmlns:xlink="http://www.w3.org/1999/xlink" x="0px" y="0px"
	 viewBox="0 0 16 16" style="enable-background:new 0 0 16 16;" xml:space="preserve">
<style type="text/css">
	.st0{fill:#37362F;}
</style>
<g>
	<path class="st0" d="M8,15c-3.2,0-5.9-2.2-6.7-5.1L3.9,11c0.2,0.9,1,1.6,1.9,1.6c1.1,0,2-0.9,2-2.1l2.4-1.7c1.5,0,2.7-1.2,2.7-2.6
		c0-1.5-1.2-2.6-2.6-2.6S7.7,4.7,7.7,6.2v0L6,8.6C5.5,8.6,5.1,8.7,4.8,9L1,7.4C1.3,3.8,4.3,1,8,1c3.9,0,7,3.1,7,7S11.9,15,8,15z
		 M6.8,11c0.2-0.6,0-1.2-0.6-1.4L5.3,9.2c0.3-0.1,0.7-0.1,1.1,0c0.4,0.2,0.7,0.4,0.8,0.8c0.2,0.4,0.1,0.8,0,1.1
		c-0.3,0.8-1.2,1.1-1.9,0.8c-0.3-0.1-0.6-0.4-0.8-0.7l0.9,0.4C6,11.9,6.6,11.6,6.8,11z M8.5,6.2c0-1,0.8-1.8,1.8-1.8
		s1.8,0.8,1.8,1.8c0,1-0.8,1.8-1.8,1.8C9.3,8,8.5,7.2,8.5,6.2z M11.6,6.2c0-0.7-0.6-1.3-1.3-1.3C9.6,4.9,9,5.5,9,6.2
		c0,0.7,0.6,1.3,1.3,1.3C11,7.5,11.6,6.9,11.6,6.2z"/>
</g>
</svg>
